X: 1201
T: Kametin Serv-i Sehîdir
C: Rifat Efendi (Hâfız-Molla)
O: Turkey
F: http://compmusic.upf.edu/node/140
N: kurdi--beste--muhammes--kametin_servi--hafiz_rifat_molla
N: makam= kurdi
N: form= beste
N: usul= muhammes = 32/4
M: 32/4
L: 1/16
K: C _B   
Q: 1/4=90
%%MIDI tuningsystem comma53
e6 d2 c4 d4  | e8 e6 d2  | d2 z2 a2 g2 f2 e4 d2  | \
w:  Ka *  *  me  |  tin  serv_  |  *  i  *  se  | 
d2 c4 d2 c2 =B4 A2  | A6 G2 z2 A4 _1/4B2  | 
w:  hî *  *  dir   |  *  *  â rı  | 
c4 {e}d2 c2 _1/4B4 A4  | A2 B4 A2 G4 A4  | \
w:  zın  *  *  *  berk_  |  *  i  *  *  se  | 
{B}A14 z2  | z2 e4 f2 e3 d c4  | z2 d4 e2 d3 c _1/4B4  | 
w:  *  men    |  Yâ  *  lel  *  li   |  yâ  *  lel  *  li   | 
z2 c4 d2 c3 _1/4B A4  | B3 A G2 B2 A8  | \
w:  yâ  *  lel  *  li   |  le  *  le  *  li   | 
A4 z4 z2 A4 _1/4B2  | c4 {e}d2 c2 B4 A4  | 
w:  *  â rı  |  zın  *  *  *  berk_  | 
A2 B4 A2 G4 A4  | A12 z4  | e6 d2 c4 d4  | \
w:  *  i  *  *  se  |  men    |  Ka *  *  me  | 
e8 e6 d2  | d2 z2 a2 g2 f2 e4 d2  | 
w:  tin  serv_  |  *  i  *  se  | 
d2 c4 d2 c2 =B4 A2  | A6 G2 z2 A4 _1/4B2  | \
w:  hî *  *  dir   |  *  *  â rı  | 
c4 {e}d2 c2 _1/4B4 A4  | A2 B4 A2 G4 A4  | 
w:  zın  *  *  *  berk_  |  *  i  *  *  se  | 
{B}A14 z2  | z2 e4 f2 e3 d c4  | z2 d4 e2 d3 c _1/4B4  | \
w:  *  men    |  Yâ  *  lel  *  li   |  yâ  *  lel  *  li   | 
z2 c4 d2 c3 _1/4B A4  | B3 A G2 B2 A8  | 
w:  yâ  *  lel  *  li   |  le  *  le  *  li   | 
A4 z4 z2 A4 _1/4B2  | c4 {e}d2 c2 B4 A4  | \
w:  *  â rı  |  zın  *  *  *  berk_  | 
A2 B4 A2 G4 A4  | A12 z4  | e6 d2 c4 d4  | 
w:  *  i  *  *  se  |  men    |  Leb *  *  le  | 
e8 e6 d2  | d2 z2 a2 g2 f2 e4 d2  | d2 ^c4 _7/8B2 B2 A2 B2 c2  | \
w:  rin  yâ  |  *  kut_ *  i   |  ah *  *  mer   | 
A6 G2 z2 A4 _7/8B2  | 
w:  *  *  diş le  | 
^c4 {e}d2 c2 _7/8B4 A4  | A2 B4 A2 G4 B4  | \
w:  rin  *  *  *  dürr_  |  *  i  *  *  a  | 
{B}A12 z4  | z2 e4 f2 e3 d c4  | z2 d4 e2 d3 c _1/4B4  | 
w:  *  den    |  Yâ  *  lel  *  li   |  yâ  *  lel  *  li   | 
z2 c4 d2 c3 _1/4B A4  | B3 A G2 B2 A8  | \
w:  yâ  *  lel  *  li   |  le  *  le  *  li   | 
A4 z4 z2 A4 _1/4B2  | c4 {e}d2 c2 B4 A4  | 
w:  *  diş le  |  rin  *  *  *  dürr_  | 
A2 B4 A2 G4 A4  | A12 z4  | e6 d2 c4 d4  | \
w:  *  i  *  *  a  |  den    |  Hüsn_ *  *  i  | 
e8 e6 d2  | d2 z2 a2 g2 f2 e4 d2  | 
w:  le  bir   |  *  ta *  ze   | 
d2 c4 d2 c2 =B4 A2  | A6 G2 z2 A4 _1/4B2  | \
w:  gül *  *  sün   |  *  *  ger çi   | 
c4 {e}d2 c2 _1/4B4 A4  | A2 B4 A2 G4 A4  | 
w:  ey  *  *  *  na  |  *  zik  *  *  be  | 
A14 z2  | z2 e4 f2 e3 d c4  | z2 d4 e2 d3 c _1/4B4  | \
w:  den    |  Yâ  *  lel  *  li   |  yâ  *  lel  *  li   | 
z2 c4 d2 c3 _1/4B A4  | B3 A G2 B2 A8  | 
w:  yâ  *  lel  *  li   |  le  *  le  *  li   | 
A4 z4 z2 A4 _1/4B2  | c4 {e}d2 c2 B4 A4  | \
w:  *  diş le  |  rin  *  *  *  dürr_  | 
A2 B4 A2 G4 A4  | A12 z4  | |


